X:1
T:Title
%%score { ( 1 3 ) | ( 2 4 ) }
L:1/8
M:6/8
K:C
V:1 treble nm="Grand Piano"
V:3 treble 
V:2 bass 
V:4 bass 
V:1
 z3 z2[Q:1/4=84] E | E2 E z DE | F2 F E2 E | [EG]2 [EG] [EA][B,DG][D^F] | %4
[M:5/8] [B,DG]-[B,DG]- [B,DG]3 |[M:1/8] [G,B,F] |[M:3/4][K:bass] [G,CE]2 [G,CE]C- [CD]E | %7
 F2 F E2 E | [CG]2 [CG]G z[K:bass] [F,B,D] |[M:5/8] [E,C]-[E,C]- [E,C]3 |[M:1/8][K:treble] G | %11
[M:3/4] [FB]2 [A,FA] [B,FG]2 [B,FG] | [B,Fd]2 [CFc] [DFB]2 [Ec] | [DGB]A .G2 B,^F | A3 G2 G | %15
 A2 G F2 E | G2 F[K:bass] [^G,CE]2 [G,CD] | .[G,E]2 z2 z2 | %18
[M:13/8] [E,C]-[E,C]- [E,C]3 z z z z z z z2 |[M:3/4][K:treble] [A,CF]6 | [G,CE]6 |] %21
V:2
 z3 z2 [C,G,C] | [C,G,C]2 [C,G,C] E,F,[C,G,C] | [C,A,C]2 [C,A,C] [C,G,C]2 [C,G,C] | %3
 [C,G,]2 [C,C] [C,C]D,D, |[M:5/8] G,,-G,,- G,,3 |[M:1/8] G,, |[M:3/4] C,2 .C,2 F,[C,G,C] | %7
 [C,A,C]2 [C,A,C] [C,G,C]2 [C,G,C] | [G,,E,]2 .[G,,E,]2 FG,, |[M:5/8] C,-C,- C,3 |[M:1/8] G, | %11
[M:3/4] [G,,G,]2 G,, G,,2 G,, | G,,2 G,, G,,2 C, | z [CD] [D,B,D]C z [D,A,C] | %14
 [D,^F,C]3 [G,B,]2 [=F,G,B,] | [E,G,C]2 [E,G,C] [D,G,B,]2 [C,G,C] | [C,_B,C]2 [C,A,C] F,,2 F,, | %17
 z F, G,, G,,2 G,, |[M:13/8] C,-C,- C,3 z z z z z z z2 |[M:3/4] F,,6 | C,6 |] %21
V:3
 x6 | z3 .C3 | x6 | x6 |[M:5/8] x5 |[M:1/8] x |[M:3/4][K:bass] z2 z E, z2 | x6 | %8
 z2 z .B,3[K:bass] |[M:5/8] x5 |[M:1/8][K:treble] x |[M:3/4] x6 | x6 | z2 z .E3 | x6 | x6 | %16
 x3[K:bass] x3 | C-[CD] [E,C] [G,B,E]2 [F,B,D] |[M:13/8] x13 |[M:3/4][K:treble] x6 | x6 |] %21
V:4
 x6 | z3 .C,3 | x6 | x6 |[M:5/8] x5 |[M:1/8] x |[M:3/4] z2 z .C,3 | x6 | z2 z .[G,,D,]3 | %9
[M:5/8] x5 |[M:1/8] x |[M:3/4] x6 | x6 | D,2 z .D,3 | x6 | x6 | x6 | G,,2 z2 z2 |[M:13/8] x13 | %19
[M:3/4] x6 | x6 |] %21

